X: 9
T: Song of the Departure of the Young Men
C: Teton Sioux band 1911-1914
N: Derived from sioux009.krn
O: South Dakota, U.S.A.
N: Teton Sioux Music by Frances Densmore, 1918
Z: transcribed to **kern format by Craig Sapp
L: 1/8
M: 2/4
Q: 1/4=58
K: Ab clef=bass
%%linebreak <none>
E2E2 [I:setbarnb 2]| 
E EE2 | 
(3E C A,A,2 | 
A, A,A,2 ||  
[M:3/4](3C A, A, A, A,E2 | 
(3C A, A,A,2A,2 ||  
[M:2/4](3C A, A, A, A, | 
A, A, _G, E, | 
[M:3/4](3A, E, E,E,2E, E, ||  
[M:2/4]A,4 | 
A, _G, G, E, | 
(3A, E, E,E,2 |]  



